src/lib/packages/icons/src/assets/line/activity-heart-circle.svg

<svg width="24" height="24" viewBox="0 0 24 24" fill="none" xmlns="http://www.w3.org/2000/svg">
<path d="M12.749 20.947C12.773 21.361 12.457 21.715 12.043 21.739C11.858 21.75 11.685 21.75 11.5 21.75C5.848 21.75 1.25 17.152 1.25 11.5C1.25 5.848 5.848 1.25 11.5 1.25C17.152 1.25 21.75 5.848 21.75 11.5C21.75 11.685 21.75 11.858 21.739 12.043C21.716 12.456 21.369 12.781 20.947 12.749C20.533 12.726 20.218 12.371 20.241 11.957C20.25 11.802 20.249 11.655 20.249 11.5C20.249 6.675 16.324 2.75 11.499 2.75C6.67399 2.75 2.74899 6.675 2.74899 11.5C2.74899 16.325 6.67399 20.25 11.499 20.25C11.655 20.247 11.8 20.2499 11.956 20.2419C12.38 20.2089 12.725 20.534 12.749 20.947ZM16.53 9.17004C16.237 8.87704 15.762 8.87704 15.469 9.17004L12.955 11.684C12.895 11.742 12.801 11.742 12.742 11.684L11.312 10.257C10.669 9.61496 9.623 9.61506 8.979 10.2581L6.46799 12.769C6.17499 13.062 6.17499 13.5371 6.46799 13.8301C6.61399 13.9761 6.80599 14.05 6.99799 14.05C7.18999 14.05 7.38202 13.9771 7.52802 13.8301L10.039 11.319C10.098 11.26 10.193 11.259 10.252 11.319L11.682 12.7461C12.327 13.3871 13.372 13.3871 14.015 12.7451L16.529 10.231C16.823 9.93796 16.823 9.46304 16.53 9.17004ZM22.67 18.5C22.144 21.164 18.942 22.6241 18.806 22.6851C18.709 22.7281 18.604 22.75 18.5 22.75C18.396 22.75 18.291 22.7281 18.194 22.6851C18.058 22.6241 14.855 21.164 14.33 18.5C14.117 17.418 14.328 16.39 14.911 15.677C15.404 15.074 16.109 14.754 16.95 14.75C17.626 14.709 18.129 15.0029 18.501 15.3379C18.872 15.0029 19.376 14.711 20.051 14.75C20.893 14.754 21.598 15.074 22.09 15.676C22.672 16.388 22.883 17.417 22.67 18.5ZM20.929 16.626C20.723 16.375 20.434 16.252 20.044 16.25C20.043 16.25 20.041 16.25 20.04 16.25C19.461 16.25 19.232 16.8261 19.208 16.8921C19.099 17.1901 18.844 17.3699 18.493 17.3879C18.175 17.3839 17.892 17.184 17.79 16.884C17.769 16.826 17.54 16.251 16.96 16.251C16.959 16.251 16.958 16.251 16.956 16.251C16.567 16.253 16.278 16.376 16.072 16.627C15.778 16.986 15.677 17.578 15.802 18.21C16.098 19.714 17.795 20.7769 18.5 21.1599C19.206 20.7769 20.901 19.714 21.198 18.21C21.323 17.577 21.222 16.985 20.929 16.626Z" fill="currentColor"/>
</svg>

<svg xmlns="http://www.w3.org/2000/svg" width="24" height="24" fill="none"><path fill="currentColor" d="M12.749 20.947a.75.75 0 0 1-.706.792c-.185.011-.358.011-.543.011-5.652 0-10.25-4.598-10.25-10.25S5.848 1.25 11.5 1.25 21.75 5.848 21.75 11.5c0 .185 0 .358-.011.543a.74.74 0 0 1-.792.706.75.75 0 0 1-.706-.792c.009-.155.008-.302.008-.457 0-4.825-3.925-8.75-8.75-8.75s-8.75 3.925-8.75 8.75 3.925 8.75 8.75 8.75c.156-.003.301 0 .457-.008a.739.739 0 0 1 .793.705ZM16.53 9.17a.75.75 0 0 0-1.061 0l-2.514 2.514a.152.152 0 0 1-.213 0l-1.43-1.427a1.653 1.653 0 0 0-2.333.001L6.468 12.77a.75.75 0 0 0 1.06 1.061l2.511-2.511a.15.15 0 0 1 .213 0l1.43 1.427c.645.641 1.69.641 2.333 0l2.514-2.515a.75.75 0 0 0 .001-1.061Zm6.14 9.33c-.526 2.664-3.728 4.124-3.864 4.185a.758.758 0 0 1-.612 0c-.136-.06-3.339-1.521-3.864-4.185-.213-1.082-.002-2.11.581-2.823.493-.603 1.198-.923 2.039-.927.676-.041 1.179.253 1.551.588.371-.335.875-.627 1.55-.588.842.004 1.547.324 2.039.926.582.712.793 1.741.58 2.824Zm-1.741-1.874c-.206-.251-.495-.374-.885-.376h-.004c-.579 0-.808.576-.832.642-.109.298-.364.478-.715.496a.75.75 0 0 1-.703-.504c-.021-.058-.25-.633-.83-.633h-.004c-.389.002-.678.125-.884.376-.294.359-.395.951-.27 1.583.296 1.504 1.993 2.567 2.698 2.95.706-.383 2.401-1.446 2.698-2.95.125-.633.024-1.225-.269-1.584Z"/></svg>
